X: 1
T: the Old Fruitmarket  [D]
C: Alastair Taylor
R: strathspey
Z: 2009 John Chambers <jc:trillian.mit.edu>
S: printed MS of unknown origin (from J. McColl)
M: C
L: 1/8
K: D
A, \
| "D"D>E F<A d2 c>d | "G"(3BAG "D"A<F "Em"E2 "A"D>E \
| "D"F>D "G"B,<B "D"A>G F<D | "Em"E2 E>F "A7"E>D C<A, |
| "D"D>E F<A d2 c>d | "G"(3BAG "D"A<F "Em"E2 "A"D>E \
| "Bm"F>d c<d "Em"B>A G>F | "A7"E<d F>E "D"D2- D |]
A, \
| "D"D>E F<A "Bm"d>e f<d | "Em"g>f e<d "A7"B2 A<e \
| "G"B>c d<B "D"A>F D<F | "Em"E2 E>F "A"E>D C<A, |
| "D"D>E F<A "Bm"d>e f<d | "Em"g>f e<d "G"B2 "A7"A>G \
| "Bm"F>d c<d "Em"B>A G>F | "A7"E<d F>E "D"D2- D |]
